Numix/22/panel/kazam-countdown.svg

<?xml version="1.0" encoding="UTF-8" standalone="no"?>
<!-- Created with Inkscape (http://www.inkscape.org/) -->

<svg
   xmlns:dc="http://purl.org/dc/elements/1.1/"
   xmlns:cc="http://creativecommons.org/ns#"
   xmlns:rdf="http://www.w3.org/1999/02/22-rdf-syntax-ns#"
   xmlns:svg="http://www.w3.org/2000/svg"
   xmlns="http://www.w3.org/2000/svg"
   xmlns:sodipodi="http://sodipodi.sourceforge.net/DTD/sodipodi-0.dtd"
   xmlns:inkscape="http://www.inkscape.org/namespaces/inkscape"
   id="svg2"
   version="1.1"
   inkscape:version="0.91 r"
   width="22"
   height="22"
   viewBox="0 0 22 22"
   sodipodi:docname="kazam-countdown.svg">
  <metadata
     id="metadata8">
    <rdf:RDF>
      <cc:Work
         rdf:about="">
        <dc:format>image/svg+xml</dc:format>
        <dc:type
           rdf:resource="http://purl.org/dc/dcmitype/StillImage" />
        <dc:title />
      </cc:Work>
    </rdf:RDF>
  </metadata>
  <defs
     id="defs6" />
  <sodipodi:namedview
     pagecolor="#ffffff"
     bordercolor="#666666"
     borderopacity="1"
     objecttolerance="10"
     gridtolerance="10"
     guidetolerance="10"
     inkscape:pageopacity="0"
     inkscape:pageshadow="2"
     inkscape:window-width="1366"
     inkscape:window-height="747"
     id="namedview4"
     showgrid="true"
     inkscape:zoom="21.454545"
     inkscape:cx="13.033255"
     inkscape:cy="11.731204"
     inkscape:window-x="0"
     inkscape:window-y="21"
     inkscape:window-maximized="1"
     inkscape:current-layer="svg2">
    <inkscape:grid
       type="xygrid"
       id="grid4138" />
  </sodipodi:namedview>
  <path
     style="color:#000000;font-style:normal;font-variant:normal;font-weight:normal;font-stretch:normal;font-size:medium;line-height:normal;font-family:sans-serif;text-indent:0;text-align:start;text-decoration:none;text-decoration-line:none;text-decoration-style:solid;text-decoration-color:#000000;letter-spacing:normal;word-spacing:normal;text-transform:none;direction:ltr;block-progression:tb;writing-mode:lr-tb;baseline-shift:baseline;text-anchor:start;white-space:normal;clip-rule:nonzero;display:inline;overflow:visible;visibility:visible;opacity:1;isolation:auto;mix-blend-mode:normal;color-interpolation:sRGB;color-interpolation-filters:linearRGB;solid-color:#000000;solid-opacity:1;fill:#ececec;fill-opacity:1;fill-rule:evenodd;stroke:none;stroke-width:1;stroke-linecap:butt;stroke-linejoin:round;stroke-miterlimit:4;stroke-dasharray:none;stroke-dashoffset:0;stroke-opacity:1;color-rendering:auto;image-rendering:auto;shape-rendering:auto;text-rendering:auto;enable-background:accumulate"
     d="M 2 4 C 1.7238691 4.0000276 1.5000276 4.2238691 1.5 4.5 L 1.5 17.5 C 1.5000276 17.776131 1.7238691 17.999972 2 18 L 14 18 C 14.276131 17.999972 14.499972 17.776131 14.5 17.5 L 14.5 14.308594 L 19.777344 16.947266 C 20.109563 17.112428 20.499627 16.871009 20.5 16.5 L 20.5 5.5 C 20.499627 5.1289908 20.109563 4.8875729 19.777344 5.0527344 L 14.5 7.6914062 L 14.5 4.5 C 14.499972 4.2238691 14.276131 4.0000276 14 4 L 2 4 z M 8 6 C 8.4105556 6 8.75 6.3394443 8.75 6.75 C 8.75 7.1605556 8.4105556 7.4999999 8 7.5 C 7.5894443 7.5 7.2499999 7.1605557 7.25 6.75 C 7.2499999 6.3394443 7.5894443 5.9999999 8 6 z M 4.9941406 7.2460938 C 5.186729 7.2460938 5.3802372 7.3196904 5.5253906 7.4648438 C 5.8156972 7.7551504 5.8156974 8.2350836 5.5253906 8.5253906 C 5.2350836 8.8156975 4.7551505 8.8156973 4.4648438 8.5253906 C 4.174537 8.2350838 4.1745367 7.7551507 4.4648438 7.4648438 C 4.6099972 7.3196903 4.8015523 7.2460937 4.9941406 7.2460938 z M 11.005859 7.2460938 C 11.198448 7.2460938 11.390003 7.3196903 11.535156 7.4648438 C 11.825463 7.7551507 11.825463 8.2350836 11.535156 8.5253906 C 11.24485 8.8156968 10.764916 8.8156975 10.474609 8.5253906 C 10.184302 8.2350836 10.184303 7.7551499 10.474609 7.4648438 C 10.619763 7.3196903 10.813271 7.2460938 11.005859 7.2460938 z M 3.75 10.25 C 4.1605556 10.25 4.5 10.589445 4.5 11 C 4.5 11.410556 4.1605556 11.75 3.75 11.75 C 3.3394443 11.75 2.9999999 11.410556 3 11 C 2.9999999 10.589445 3.3394443 10.25 3.75 10.25 z M 12.25 10.25 C 12.660556 10.25 13 10.589444 13 11 C 13 11.410556 12.660556 11.75 12.25 11.75 C 11.839445 11.75 11.5 11.410556 11.5 11 C 11.5 10.589444 11.839445 10.25 12.25 10.25 z M 4.9941406 13.257812 C 5.1867291 13.257815 5.3802375 13.329456 5.5253906 13.474609 C 5.8156975 13.764916 5.8156972 14.244849 5.5253906 14.535156 C 5.2350838 14.825463 4.7551507 14.825463 4.4648438 14.535156 C 4.1745374 14.24485 4.174537 13.764915 4.4648438 13.474609 C 4.609997 13.329456 4.8015522 13.257812 4.9941406 13.257812 z M 11.005859 13.257812 C 11.198448 13.257817 11.390003 13.329456 11.535156 13.474609 C 11.825463 13.764916 11.825463 14.244849 11.535156 14.535156 C 11.244849 14.825463 10.764916 14.825463 10.474609 14.535156 C 10.184303 14.24485 10.184302 13.764916 10.474609 13.474609 C 10.619763 13.329456 10.813271 13.257812 11.005859 13.257812 z M 8 14.5 C 8.4105556 14.5 8.75 14.839445 8.75 15.25 C 8.75 15.660556 8.4105556 16 8 16 C 7.5894443 16 7.2499999 15.660556 7.25 15.25 C 7.2499999 14.839445 7.5894443 14.5 8 14.5 z "
     id="path4140" />
</svg>

<!-- Created with Inkscape (http://www.inkscape.org/) -->
<svg xmlns="http://www.w3.org/2000/svg" viewBox="0 0 22 22">
 <path d="m 2 4 c -0.276 0 -0.5 0.224 -0.5 0.5 l 0 13 c 0 0.276 0.224 0.5 0.5 0.5 l 12 0 c 0.276 0 0.5 -0.224 0.5 -0.5 l 0 -3.191 l 5.277 2.639 c 0.332 0.165 0.722 -0.076 0.723 -0.447 l 0 -11 c 0 -0.371 -0.39 -0.612 -0.723 -0.447 l -5.277 2.639 l 0 -3.191 c 0 -0.276 -0.224 -0.5 -0.5 -0.5 l -12 0 z m 6 2 c 0.411 0 0.75 0.339 0.75 0.75 c 0 0.411 -0.339 0.75 -0.75 0.75 c -0.411 0 -0.75 -0.339 -0.75 -0.75 c 0 -0.411 0.339 -0.75 0.75 -0.75 z m -3.01 1.246 c 0.193 0 0.386 0.074 0.531 0.219 c 0.29 0.29 0.29 0.77 0 1.061 c -0.29 0.29 -0.77 0.29 -1.061 0 c -0.29 -0.29 -0.29 -0.77 0 -1.061 c 0.145 -0.145 0.337 -0.219 0.529 -0.219 z m 6.01 0 c 0.193 0 0.384 0.074 0.529 0.219 c 0.29 0.29 0.29 0.77 0 1.061 c -0.29 0.29 -0.77 0.29 -1.061 0 c -0.29 -0.29 -0.29 -0.77 0 -1.061 c 0.145 -0.145 0.339 -0.219 0.531 -0.219 z m -7.256 3 c 0.411 0 0.75 0.339 0.75 0.75 c 0 0.411 -0.339 0.75 -0.75 0.75 c -0.411 0 -0.75 -0.339 -0.75 -0.75 c 0 -0.411 0.339 -0.75 0.75 -0.75 z m 8.5 0 c 0.411 0 0.75 0.339 0.75 0.75 c 0 0.411 -0.339 0.75 -0.75 0.75 c -0.411 0 -0.75 -0.339 -0.75 -0.75 c 0 -0.411 0.339 -0.75 0.75 -0.75 z m -7.256 3.01 c 0.193 0 0.386 0.072 0.531 0.217 c 0.29 0.29 0.29 0.77 0 1.061 c -0.29 0.29 -0.77 0.29 -1.061 0 c -0.29 -0.29 -0.29 -0.77 0 -1.061 c 0.145 -0.145 0.337 -0.217 0.529 -0.217 z m 6.01 0 c 0.193 0 0.384 0.072 0.529 0.217 c 0.29 0.29 0.29 0.77 0 1.061 c -0.29 0.29 -0.77 0.29 -1.061 0 c -0.29 -0.29 -0.29 -0.77 0 -1.061 c 0.145 -0.145 0.339 -0.217 0.531 -0.217 z m -3.01 1.242 c 0.411 0 0.75 0.339 0.75 0.75 c 0 0.411 -0.339 0.75 -0.75 0.75 c -0.411 0 -0.75 -0.339 -0.75 -0.75 c 0 -0.411 0.339 -0.75 0.75 -0.75 z" mix-blend-mode="normal" isolation="auto" white-space="normal" solid-opacity="1" solid-color="#000000" style="visibility:visible;shape-rendering:auto;color-interpolation-filters:linearRGB;fill:#ececec;opacity:1;image-rendering:auto;fill-opacity:1;stroke:none;display:inline;color:#000;fill-rule:evenodd;color-rendering:auto;color-interpolation:sRGB"/>
</svg>
